src/_includes/logo.svg

<svg class="{{ class }}" viewBox="0 0 407 106" version="1.1" xmlns="http://www.w3.org/2000/svg" xmlns:xlink="http://www.w3.org/1999/xlink">
    <g id="Page-1" stroke="none" stroke-width="1" fill="none" fill-rule="evenodd">
        <g id="brandmark-design" transform="translate(-47.000000, -197.000000)" fill="#FFFDF6" fill-rule="nonzero">
            <g id="logo-group" transform="translate(47.000000, 197.000000)">
                <path d="M50.5541143,51.8675887 L46.1052921,50.5090446 C44.6223881,50.0562111 44.1660084,50.622253 43.253469,52.3204004 C38.2342822,61.0374886 32.0739261,65.5662602 25.1160057,65.5662602 C16.5605363,65.5662602 13.5942881,59.0002184 15.1916171,52.0943767 C16.7886161,45.1886442 22.4922624,40.4339581 28.9941331,40.4339581 C31.1614967,40.4339581 33.1007805,41 34.5836845,41.6792721 C35.9526037,42.2453139 36.5229683,42.2453139 37.5496026,41.1132302 L40.9717904,37.1509372 C41.7703009,36.1320619 41.9984467,35.4528116 40.5154987,33.9811465 C37.8918654,31.6037489 32.4162989,29 26.3708079,29 C15.191265,29 2.75744811,37.7170883 0.362224723,51.6416742 C-1.9192338,65.4531392 6.7503306,77 21.4659361,77 C34.5841026,77 46.56242,67.8301001 51.8094666,54.3583258 C52.2657583,53.1130118 51.9235395,52.3206187 50.5546424,51.8676979 L50.5541143,51.8675887 Z" id="path250301"></path>
                <path d="M86.5559454,51.8605394 C84.8499285,56.5036766 80.3005501,65.5630864 74.8413398,65.5630864 C72.2254911,65.5630864 70.4057178,63.4114206 71.6568188,57.9755126 C73.1353229,51.2939781 75.5237685,43.14028 75.7512813,42.2336945 C76.5474225,38.4965965 76.3199536,36.4580901 72.5667603,34.7593893 C66.8800372,32.2679178 59.9427616,30.116252 56.6441551,27.7380491 C56.871624,23.321449 54.5969787,19.5842418 50.161247,20.037316 C45.0431962,20.4903029 42.8822634,25.926189 45.6118685,32.6071774 C46.2942753,36.5708125 45.8393374,45.7439277 43.2234229,52.6514532 C42.768485,53.6706737 42.995954,54.4634226 44.0195641,54.803119 L49.3651277,56.8415162 C50.3887378,57.1812564 51.0711446,57.0680097 51.4123041,55.9355425 C53.118321,50.4997437 54.369422,44.2711743 55.0518507,37.9294454 L59.4874728,39.9678427 C61.3072461,40.7605697 61.8759184,41.6665434 61.3072461,43.9314778 C59.828742,50.3865844 58.0089687,54.9164531 57.0990271,60.2390925 C55.7341697,69.0722928 62.4445907,77 71.9981538,77 C84.3950784,77 92.3569295,63.8632497 94.8591315,54.3506564 C95.2003349,53.1049207 94.972866,52.3122592 93.6080305,51.859185 L89.1724085,50.5001807 C87.807551,50.0471938 87.0114756,50.5001807 86.5565597,51.859185 L86.5559454,51.8605394 Z" id="path250303"></path>
                <path d="M101.890478,77 C110.356128,77 116.876917,72.0189124 119.393783,68.3962437 C121.109797,73.603789 125.685837,77 132.206516,77 C145.019248,77 152.34144,63.8678532 154.858306,54.3585936 C155.201509,53.1132944 154.972707,52.3209107 153.599873,51.8679952 L149.138257,50.5094671 C147.765401,50.056639 146.964661,50.5094671 146.507079,51.8679952 C144.905487,56.0566991 141.015876,65.5657404 135.753409,65.5657404 C132.550226,65.5657404 132.206957,61.9430716 133.122231,55.9431426 L136.783106,32.6225814 C137.011908,31.3772822 136.211101,30.3584407 134.838246,30.3584407 L125.686168,30.3584407 C124.313312,30.3584407 123.283725,31.264097 123.054989,32.6225814 L122.940588,33.3018235 C121.110151,31.7169469 117.449386,29 111.272086,29 C100.175147,29 89.9940341,37.6037563 86.3329381,49.4903855 C82.2144809,62.9621096 87.7057939,76.9994322 101.890941,76.9994322 L101.890478,77 Z M121.224331,44.2826436 C119.622739,55.4897904 113.559421,65.5657404 106.466296,65.5657404 C101.089406,65.5657404 98.6870738,59.5658113 100.403088,52.8867275 C102.462262,45.0754641 108.296734,40.773313 113.902139,40.773313 C117.906173,40.773313 120.079769,43.0374536 121.223779,44.2827528 L121.224331,44.2826436 Z" id="path250305"></path>
                <path d="M141.513499,81.7843016 C139.226827,96.2905846 144.714797,106 155.233976,106 C168.268538,106 175.24236,90.8084502 174.899403,78.5860226 C174.899403,77.101131 174.670736,75.6161292 174.442069,74.2454854 C174.899403,74.2454854 175.356738,74.3597112 176.50003,74.3597112 C186.904412,74.3597112 193.307117,64.193635 195.707814,55.1700373 C196.279482,52.8855208 196.050815,52.0858959 194.678811,51.6290147 L190.219822,50.2582607 C188.847775,49.8013574 188.047505,50.2582607 187.590193,51.6290147 C185.989544,55.8554142 182.559535,64.7647641 174.89969,64.7647641 C172.841729,64.7647641 171.469681,64.0794091 170.440701,61.9091185 C170.0977,61.2237635 169.640365,60.0814833 169.297364,59.5103541 C168.497029,57.9112146 167.353649,57.5684711 166.210312,58.2538481 L160.950943,61.2237415 C159.807607,62.0233223 159.807607,62.9371289 160.379275,64.193635 C161.979924,67.9630431 164.037995,71.5040656 164.152241,78.5864413 C164.380908,89.8944453 159.350185,95.4922598 156.263243,95.4922598 C151.804254,95.4922598 154.662594,84.1842558 156.263243,74.1322071 L159.921963,51.4016207 C175.014266,46.3757065 188.162412,31.0694681 188.162412,15.6487616 C188.162412,6.85332908 183.817779,0 175.471909,0 C165.982263,0 152.948141,8.90957018 148.489703,37.1233927 L141.513499,81.7843016 Z M161.750154,40.205573 L162.779157,33.5805193 C165.294541,18.0463361 171.125467,10.8499329 174.670162,10.8499329 C176.499522,10.8499329 177.528503,12.9059536 177.414147,16.4469762 C177.071147,23.8716548 171.811822,34.2661166 161.750617,40.205573 L161.750154,40.205573 Z" id="path250307"></path>
                <path d="M212.545048,36.5085931 L213.461809,31.1777248 C213.691,29.9300631 212.774238,28.9092888 211.513646,28.9092888 L205.325526,28.9092888 L206.81522,19.268436 C207.04441,18.0207743 206.127648,17 204.867057,17 L195.699439,17 C194.324252,17 193.292917,17.9073744 193.063792,19.268436 L191.459481,28.9092888 L187.563266,28.9092888 C186.188079,28.9092888 185.042127,29.8166632 184.92762,31.1777248 L184.010858,36.5085931 C183.896263,37.7562547 184.698429,38.777029 185.959021,38.777029 L189.969854,38.777029 L186.531997,59.7602805 C185.042303,69.2876897 190.199089,77 200.39771,77 C212.888457,77 220.336926,63.8429401 222.858065,54.3156403 C223.201851,53.0679787 222.972661,52.2740917 221.597496,51.820317 L217.128304,50.4592117 C215.523993,50.1189463 214.951017,50.5726335 214.492658,51.820317 C212.888347,56.0169673 208.877514,65.5440483 203.949853,65.5440483 C200.397379,65.5440483 200.053637,61.914507 200.970355,55.9031955 L203.720618,38.7761539 L209.908738,38.7761539 C211.513049,38.7761539 212.429878,37.8687795 212.544384,36.5077179 L212.545048,36.5085931 Z" id="path250309"></path>
                <path d="M229.890478,77 C238.356128,77 244.876917,72.0189124 247.393783,68.3962437 C249.109797,73.603789 253.685837,77 260.206516,77 C273.019248,77 280.34144,63.8678532 282.858306,54.3585936 C283.201509,53.1132944 282.972707,52.3209107 281.599873,51.8679952 L277.138257,50.5094671 C275.765401,50.056639 274.964661,50.5094671 274.507079,51.8679952 C272.905487,56.0566991 269.015876,65.5657404 263.753409,65.5657404 C260.550226,65.5657404 260.206957,61.9430716 261.122231,55.9431426 L264.783106,32.6225814 C265.011908,31.3772822 264.211101,30.3584407 262.838246,30.3584407 L253.686168,30.3584407 C252.313312,30.3584407 251.283725,31.264097 251.054989,32.6225814 L250.940588,33.3018235 C249.110151,31.7169469 245.449386,29 239.272086,29 C228.175147,29 217.994034,37.6037563 214.332938,49.4903855 C210.214481,62.9621096 215.705794,76.9994322 229.890941,76.9994322 L229.890478,77 Z M249.224331,44.2826436 C247.622739,55.4897904 241.559421,65.5657404 234.466296,65.5657404 C229.089406,65.5657404 226.687074,59.5658113 228.403088,52.8867275 C230.462262,45.0754641 236.296734,40.773313 241.902139,40.773313 C245.906173,40.773313 248.079769,43.0374536 249.223779,44.2827528 L249.224331,44.2826436 Z" id="path250311"></path>
                <path d="M271.010884,73.3441611 C270.896009,74.6008474 271.700134,75.6290053 272.963804,75.6290053 L282.153805,75.6290053 C283.762033,75.6290053 284.566202,74.7150676 284.795886,73.3441611 L285.944636,65.8041531 C288.701614,48.3251387 296.742865,40.7850205 303.635698,40.7850205 C309.72403,40.7850205 311.447155,46.6113954 309.838927,53.579972 C308.460383,59.6347651 304.784449,65.4614705 299.270381,65.4614705 C296.513403,65.4614705 295.134859,65.2329861 294.101006,64.8902594 C292.492778,64.4332906 291.458925,64.661775 290.999336,65.8041971 L288.701836,71.1736252 C288.012586,72.7729941 288.586961,73.6869979 291.114233,74.7151558 C292.952256,75.5148512 297.432359,77 305.129029,77 C317.190463,77 326.49525,73.3442051 333.503202,65.8038666 C336.26018,62.7192828 338.672578,59.0635981 339.706431,55.0651207 C340.280806,52.8945407 340.051056,52.0948012 338.672555,51.6378544 L334.192452,50.2669037 C332.813908,49.9241771 332.009849,50.2669037 331.550371,51.6378544 C330.05704,55.6363318 328.448701,58.0354402 326.61079,59.9774917 C323.279437,63.4047581 318.684436,65.9181308 315.697664,65.9181308 C318.684436,64.2044976 324.083495,58.2638586 324.772767,49.0098868 C325.691768,36.6722128 317.535686,28.5602224 307.081705,28.5602224 C299.499932,28.5602224 293.756071,32.9013823 290.654844,36.1002304 L296.054014,2.28484424 C296.283764,1.02815787 295.479639,0 294.101095,0 L284.911093,0 C283.532549,0 282.498696,0.913937694 282.269012,2.28484424 L271.010884,73.3441611 Z" id="path250313"></path>
                <path d="M374.759982,51.5236663 L370.295576,50.1526961 C369.036356,49.8099645 368.235115,50.0384522 367.662752,51.2951345 C362.396995,62.2625658 356.558875,65.2329279 352.781768,65.2329279 C346.600274,65.2329279 343.509472,56.8931712 343.166099,48.4390384 C352.209405,46.1541614 362.970241,39.6422181 368.693866,27.8755867 C373.845129,17.1366872 375.90559,0 360.451801,0 C348.776003,0 336.298632,13.8231969 331.4903,35.9865913 C327.827136,52.7804808 329.887707,77 349.462749,77 C360.681453,77 370.182185,69.0029307 375.33389,55.1792931 C376.24967,52.8944161 376.364143,52.0946651 374.761527,51.5234459 L374.759982,51.5236663 Z M344.195336,37.9285604 C347.057149,24.4480509 354.841235,11.9956039 358.847773,11.766411 C361.82408,11.6521671 361.251718,18.7353077 357.588553,25.4761133 C354.039883,32.2164782 348.659742,36.3292788 344.194784,37.9285604 L344.195336,37.9285604 Z" id="path250315"></path>
                <path d="M400.956094,61.1507188 C395.395523,64.54697 391.537174,65.3394722 388.586742,65.3394722 C384.047482,65.3394722 381.096941,63.4148863 379.735229,60.3583258 C389.608163,60.5847425 403.338899,56.0564513 406.063199,44.8489536 C408.219326,35.9055141 401.296933,29 391.083379,29 C379.735229,29 367.252046,37.4906278 364.52884,50.9625114 C361.464796,65.6791629 372.132144,77 385.749705,77 C395.395632,77 403.11233,71.3395814 405.722799,68.7358326 C406.63065,67.8301656 407.425021,66.8112466 406.744132,65.6791629 L404.134101,61.6036397 C403.339731,60.3583258 402.318375,60.3583258 400.956663,61.1508062 L400.956094,61.1507188 Z M378.940596,53.3394286 L379.054077,52.9997379 C380.302396,45.8676542 386.430375,40.6601565 390.742628,40.6601565 C393.012258,40.6601565 394.260576,42.0187006 394.260576,43.8299472 C394.260576,48.4715123 386.657272,53.2261984 378.940355,53.3394286 L378.940596,53.3394286 Z" id="path250317"></path>
            </g>
        </g>
    </g>
</svg>

<svg xmlns="http://www.w3.org/2000/svg" class="{{ class }}" viewBox="0 0 407 106"><g fill="currentColor" fill-rule="nonzero"><path d="m50.554 51.868-4.449-1.359c-1.483-.453-1.939.113-2.852 1.811-5.019 8.717-11.18 13.246-18.137 13.246-8.555 0-11.522-6.566-9.924-13.472 1.597-6.905 7.3-11.66 13.802-11.66 2.167 0 4.107.566 5.59 1.245 1.369.566 1.939.566 2.966-.566l3.422-3.962c.798-1.019 1.026-1.698-.457-3.17C37.892 31.604 32.416 29 26.371 29 15.19 29 2.757 37.717.362 51.642-1.919 65.453 6.75 77 21.466 77c13.118 0 25.096-9.17 30.343-22.642.457-1.245.115-2.037-1.254-2.49Z"/><path d="M86.556 51.86C84.85 56.505 80.3 65.564 74.84 65.564c-2.616 0-4.435-2.152-3.184-7.587 1.478-6.682 3.867-14.836 4.094-15.742.796-3.737.569-5.776-3.184-7.475-5.687-2.491-12.624-4.643-15.923-7.021.228-4.417-2.047-8.154-6.483-7.7-5.118.452-7.279 5.888-4.55 12.57.683 3.963.228 13.136-2.388 20.043-.455 1.02-.227 1.812.797 2.152l5.345 2.039c1.024.34 1.706.226 2.047-.906 1.706-5.436 2.957-11.665 3.64-18.007l4.435 2.039c1.82.793 2.389 1.699 1.82 3.963C59.83 50.387 58.01 54.916 57.1 60.24 55.734 69.072 62.445 77 71.999 77c12.396 0 20.358-13.137 22.86-22.65.341-1.245.114-2.038-1.251-2.49l-4.436-1.36c-1.364-.453-2.16 0-2.615 1.36h-.001Z"/><path d="M101.89 77c8.466 0 14.987-4.981 17.504-8.604C121.11 73.604 125.686 77 132.207 77c12.812 0 20.134-13.132 22.651-22.641.344-1.246.115-2.038-1.258-2.491l-4.462-1.359c-1.373-.452-2.173 0-2.63 1.359-1.603 4.189-5.492 13.698-10.755 13.698-3.203 0-3.546-3.623-2.63-9.623l3.66-23.32c.229-1.246-.572-2.265-1.945-2.265h-9.152c-1.373 0-2.402.906-2.631 2.265l-.114.679C121.11 31.717 117.449 29 111.272 29c-11.097 0-21.278 8.604-24.94 20.49C82.215 62.962 87.707 77 101.892 77Zm19.334-32.717c-1.601 11.207-7.665 21.283-14.758 21.283-5.377 0-7.779-6-6.063-12.68 2.06-7.81 7.894-12.113 13.5-12.113 4.003 0 6.177 2.264 7.32 3.51h.001Z"/><path d="M141.513 81.784C139.227 96.291 144.715 106 155.234 106c13.035 0 20.008-15.192 19.665-27.414 0-1.485-.228-2.97-.457-4.34.457 0 .915.114 2.058.114 10.404 0 16.807-10.166 19.208-19.19.571-2.284.343-3.084-1.03-3.541l-4.458-1.37c-1.372-.458-2.172 0-2.63 1.37-1.6 4.226-5.03 13.136-12.69 13.136-2.058 0-3.43-.686-4.46-2.856-.342-.685-.8-1.828-1.143-2.399-.8-1.599-1.943-1.942-3.087-1.256l-5.26 2.97c-1.142.8-1.142 1.713-.57 2.97 1.6 3.769 3.658 7.31 3.772 14.392.229 11.308-4.802 16.906-7.889 16.906-4.459 0-1.6-11.308 0-21.36l3.659-22.73c15.092-5.026 28.24-20.333 28.24-35.753 0-8.796-4.344-15.649-12.69-15.649-9.49 0-22.524 8.91-26.982 37.123l-6.977 44.661Zm20.237-41.578 1.03-6.625c2.515-15.535 8.345-22.731 11.89-22.731 1.83 0 2.859 2.056 2.744 5.597-.343 7.425-5.602 17.82-15.663 23.759Z"/><path d="m212.545 36.509.917-5.331c.229-1.248-.688-2.269-1.948-2.269h-6.188l1.49-9.64c.228-1.248-.688-2.269-1.949-2.269H195.7c-1.375 0-2.406.907-2.635 2.268l-1.605 9.641h-3.896c-1.375 0-2.52.908-2.635 2.269l-.917 5.33c-.115 1.248.687 2.269 1.948 2.269h4.01l-3.437 20.983c-1.49 9.528 3.667 17.24 13.866 17.24 12.49 0 19.939-13.157 22.46-22.684.344-1.248.115-2.042-1.26-2.496l-4.47-1.36c-1.604-.341-2.177.113-2.635 1.36-1.605 4.197-5.615 13.724-10.543 13.724-3.553 0-3.896-3.63-2.98-9.64l2.75-17.128h6.189c1.604 0 2.52-.907 2.635-2.268h.001Z"/><path d="M229.89 77c8.466 0 14.987-4.981 17.504-8.604C249.11 73.604 253.686 77 260.207 77c12.812 0 20.134-13.132 22.651-22.641.344-1.246.115-2.038-1.258-2.491l-4.462-1.359c-1.373-.452-2.173 0-2.63 1.359-1.603 4.189-5.492 13.698-10.755 13.698-3.203 0-3.546-3.623-2.63-9.623l3.66-23.32c.229-1.246-.572-2.265-1.945-2.265h-9.152c-1.373 0-2.402.906-2.631 2.265l-.114.679C249.11 31.717 245.449 29 239.272 29c-11.097 0-21.278 8.604-24.94 20.49C210.215 62.962 215.707 77 229.892 77Zm19.334-32.717c-1.601 11.207-7.665 21.283-14.758 21.283-5.377 0-7.779-6-6.063-12.68 2.06-7.81 7.894-12.113 13.5-12.113 4.003 0 6.177 2.264 7.32 3.51h.001Z"/><path d="M271.01 73.344c-.114 1.257.69 2.285 1.954 2.285h9.19c1.608 0 2.412-.914 2.642-2.285l1.149-7.54c2.757-17.479 10.798-25.019 17.69-25.019 6.089 0 7.812 5.826 6.204 12.795-1.379 6.055-5.055 11.881-10.569 11.881-2.757 0-4.135-.228-5.169-.57-1.608-.458-2.642-.23-3.102.913l-2.297 5.37c-.69 1.599-.115 2.513 2.412 3.541 1.838.8 6.318 2.285 14.015 2.285 12.061 0 21.366-3.656 28.374-11.196 2.757-3.085 5.17-6.74 6.203-10.739.575-2.17.345-2.97-1.033-3.427l-4.48-1.371c-1.38-.343-2.183 0-2.643 1.37-1.493 4-3.101 6.398-4.94 8.34-3.33 3.428-7.926 5.941-10.912 5.941 2.986-1.714 8.385-7.654 9.075-16.908.919-12.338-7.237-20.45-17.691-20.45-7.582 0-13.326 4.341-16.427 7.54l5.399-33.815c.23-1.257-.574-2.285-1.953-2.285h-9.19c-1.378 0-2.412.914-2.642 2.285l-11.258 71.06Z"/><path d="m374.76 51.524-4.464-1.371c-1.26-.343-2.06-.115-2.633 1.142-5.266 10.968-11.104 13.938-14.881 13.938-6.182 0-9.273-8.34-9.616-16.794 9.043-2.285 19.804-8.797 25.528-20.563C373.845 17.136 375.906 0 360.452 0c-11.676 0-24.153 13.823-28.962 35.987C327.827 52.78 329.888 77 349.463 77c11.218 0 20.72-7.997 25.87-21.82.917-2.286 1.031-3.085-.571-3.657h-.002Zm-30.565-13.595c2.862-13.48 10.646-25.933 14.653-26.163 2.976-.114 2.404 6.97-1.26 13.71-3.548 6.74-8.928 10.853-13.393 12.453Z"/><path d="M400.956 61.15c-5.56 3.397-9.419 4.19-12.37 4.19-4.539 0-7.49-1.925-8.85-4.982 9.872.227 23.603-4.302 26.327-15.509C408.22 35.906 401.297 29 391.083 29c-11.348 0-23.831 8.49-26.554 21.963C361.465 65.679 372.132 77 385.749 77c9.647 0 17.363-5.66 19.974-8.264.908-.906 1.702-1.925 1.021-3.057l-2.61-4.075c-.794-1.246-1.816-1.246-3.177-.453Zm-22.015-7.81.113-.34c1.248-7.132 7.376-12.34 11.689-12.34 2.27 0 3.518 1.359 3.518 3.17 0 4.642-7.604 9.396-15.32 9.51Z"/></g></svg>
